flags/us-ak.svg

<svg xmlns="http://www.w3.org/2000/svg" width="512" height="512" fill="none"><path fill="var(--flag-palette-navy, #002266)" d="M0 0h512v512H0z"/><path fill="var(--flag-palette-dark-yellow, #ffc635)" d="m336.8 199.7 104-75.1h-128l104 75.1-40-122.1zM57 231.7l52-37.4H45l52 37.4-20-60.9zm85.5 31.7 52-37.4h-64l52 37.4-20-60.9zM185 309l52-37.4h-64l52 37.4-20-60.9zm43 47.6 52-37.4h-64l52 37.4-20-60.9zm-5.6 67.1 52-37.4h-64l52 37.4-20-60.9zM356 402.2l52-37.4h-64l52 37.4-20-60.9zm-37.4 53.2 52-37.4h-64l52 37.4-20-60.9z"/></svg>

<svg width="512" height="512" viewBox="0 0 512 512" fill="none" xmlns="http://www.w3.org/2000/svg">
<rect width="512" height="512" fill="var(--flag-palette-navy, #002266)"/>
<path d="M336.8 199.7L440.8 124.6H312.8L416.8 199.7L376.8 77.5996L336.8 199.7ZM57 231.7L109 194.3H45L97 231.7L77 170.8L57 231.7ZM142.5 263.4L194.5 226H130.5L182.5 263.4L162.5 202.5L142.5 263.4ZM185 309L237 271.6H173L225 309L205 248.1L185 309ZM228 356.6L280 319.2H216L268 356.6L248 295.7L228 356.6ZM222.4 423.7L274.4 386.3H210.4L262.4 423.7L242.4 362.8L222.4 423.7ZM356 402.2L408 364.8H344L396 402.2L376 341.3L356 402.2ZM318.6 455.4L370.6 418H306.6L358.6 455.4L338.6 394.5L318.6 455.4Z" fill="var(--flag-palette-dark-yellow, #ffc635)"/>
</svg>
